X:12
T:Thalia. G&D_1811.12, The
M:2/4
L:1/8
Q:1/4=100
B:Goulding, D’Almaine & Potter 24 CDs, 1811
O:England
A:London
N:Possibly a song, or a march.
Z:Village Music Project, 1999, Chris Partington
W:Change sides, back again, down the middle and up again & Swing Corners.
K:D
a/g/|fdd e/d/|cAAd|BG G/B/A/G/|FDD a/g/|
fdd e/d/|cAAd|B>d e/d/c/B/|Add:|
|:e|faa g/f/|egg f/e/|fdgf|(e/d/c/B/) Ad|
faa g/f/|egg f/e/|f>d B/g/f/e/|dDD:|

